src/volume.svg

<svg viewBox="0 0 16 16" fill="none" xmlns="http://www.w3.org/2000/svg"><path fill-rule="evenodd" clip-rule="evenodd" d="M3.47 5H0.940002V11H3.47L6.31 13.28L7.94 14.59V1.41L6.31 2.72L3.47 5ZM6.94 12.5L3.83 10H1.94V6H3.83L6.94 3.5V12.5ZM11.94 8C11.9409 7.2757 11.745 6.56477 11.3734 5.94307C11.0018 5.32137 10.4684 4.81223 9.83001 4.47L9.35001 5.35C9.83124 5.60537 10.2339 5.98697 10.5146 6.45383C10.7954 6.9207 10.9438 7.45521 10.9438 8C10.9438 8.5448 10.7954 9.07931 10.5146 9.54617C10.2339 10.013 9.83124 10.3946 9.35001 10.65L9.83001 11.53C10.4684 11.1878 11.0018 10.6786 11.3734 10.0569C11.745 9.43524 11.9409 8.7243 11.94 8ZM11.0583 1.76381L11.06 1.76001H11.05C11.0528 1.76128 11.0555 1.76254 11.0583 1.76381ZM11.0583 1.76381L10.64 2.67001C11.6639 3.13736 12.5318 3.88921 13.1404 4.83598C13.749 5.78275 14.0725 6.88452 14.0725 8.01001C14.0725 9.1355 13.749 10.2373 13.1404 11.184C12.5318 12.1308 11.6639 12.8827 10.64 13.35L11.05 14.26C12.2451 13.7101 13.2575 12.829 13.9671 11.7213C14.6767 10.6135 15.0539 9.32556 15.0539 8.01001C15.0539 6.69446 14.6767 5.40649 13.9671 4.29875C13.2591 3.19356 12.2498 2.31401 11.0583 1.76381Z" fill="#111111"/></svg>

<svg viewBox="0 0 16 16" fill="none" xmlns="http://www.w3.org/2000/svg"><path fill-rule="evenodd" clip-rule="evenodd" d="M3.47 5H.94v6h2.53l2.84 2.28 1.63 1.31V1.41L6.31 2.72 3.47 5Zm3.47 7.5L3.83 10H1.94V6h1.89l3.11-2.5v9Zm5-4.5a4 4 0 0 0-2.11-3.53l-.48.88a3 3 0 0 1 0 5.3l.48.88A4 4 0 0 0 11.94 8Zm-.882-6.236.002-.004h-.01l.008.004Zm0 0-.418.906a5.87 5.87 0 0 1 0 10.68l.41.91a6.88 6.88 0 0 0 .008-12.496Z" fill="#111111"/></svg>
